assets/images/footer-linkedin.svg

<svg width="27" height="27" viewBox="0 0 27 27" fill="none" xmlns="http://www.w3.org/2000/svg">
<path fill-rule="evenodd" clip-rule="evenodd" d="M13.5 0C6.04416 0 0 6.04416 0 13.5C0 20.9558 6.04416 27 13.5 27C20.9558 27 27 20.9558 27 13.5C27 6.04416 20.9558 0 13.5 0ZM6.48126 11.1817H9.54065V20.3739H6.48126V11.1817ZM9.74128 8.33777C9.72142 7.43648 9.07691 6.75 8.03031 6.75C6.98371 6.75 6.29948 7.43648 6.29948 8.33777C6.29948 9.22039 6.96348 9.92663 7.99059 9.92663H8.01014C9.07691 9.92663 9.74128 9.22039 9.74128 8.33777ZM17.0516 10.9642C19.0648 10.9642 20.5741 12.2783 20.5741 15.1017L20.574 20.3723H17.5147V15.4544C17.5147 14.2192 17.072 13.3763 15.9645 13.3763C15.1193 13.3763 14.6158 13.9445 14.3947 14.4933C14.3138 14.69 14.294 14.9641 14.294 15.2388V20.3725H11.2342C11.2342 20.3725 11.2745 12.0428 11.2342 11.1803H14.294V12.4823C14.7 11.8564 15.4273 10.9642 17.0516 10.9642Z" fill="white"/>
</svg>

<svg xmlns="http://www.w3.org/2000/svg" width="27" height="27" fill="none"><path fill="#fff" fill-rule="evenodd" d="M13.5 0C6.044 0 0 6.044 0 13.5S6.044 27 13.5 27 27 20.956 27 13.5 20.956 0 13.5 0ZM6.481 11.182h3.06v9.192H6.48v-9.192Zm3.26-2.844c-.02-.902-.664-1.588-1.71-1.588-1.047 0-1.732.686-1.732 1.588 0 .882.664 1.589 1.692 1.589h.02c1.066 0 1.73-.707 1.73-1.59Zm7.31 2.626c2.014 0 3.523 1.314 3.523 4.138v5.27h-3.06v-4.918c0-1.235-.442-2.078-1.55-2.078-.845 0-1.348.569-1.57 1.117-.08.197-.1.471-.1.746v5.133h-3.06s.04-8.33 0-9.192h3.06v1.302c.406-.626 1.133-1.518 2.758-1.518Z" clip-rule="evenodd"/></svg>
